emulator/images/iconScreenshot.svg

<svg xmlns="http://www.w3.org/2000/svg" width="24" height="24"><path d="M9 2 7 4H4a2 2 0 0 0-2 2v12a2 2 0 0 0 2 2h16a2 2 0 0 0 2-2V6a2 2 0 0 0-2-2h-3l-2-2H9z" style="font-variant-east_asian:normal;opacity:1;vector-effect:none;fill:#c8c8c8;fill-opacity:1;stroke:#c8c8c8;stroke-width:1.88976383;stroke-linecap:butt;stroke-linejoin:miter;stroke-miterlimit:4;stroke-dasharray:none;stroke-dashoffset:0;stroke-opacity:1"/><path d="M4 4h3l2-2h6l2 2h3a2 2 0 0 1 2 2v12a2 2 0 0 1-2 2H4a2 2 0 0 1-2-2V6a2 2 0 0 1 2-2m8 3a5 5 0 0 0-5 5 5 5 0 0 0 5 5 5 5 0 0 0 5-5 5 5 0 0 0-5-5m0 2a3 3 0 0 1 3 3 3 3 0 0 1-3 3 3 3 0 0 1-3-3 3 3 0 0 1 3-3z"/></svg>

<?xml version="1.0" encoding="UTF-8"?><!DOCTYPE svg PUBLIC "-//W3C//DTD SVG 1.1//EN" "http://www.w3.org/Graphics/SVG/1.1/DTD/svg11.dtd"><svg xmlns="http://www.w3.org/2000/svg" xmlns:xlink="http://www.w3.org/1999/xlink" version="1.1" width="24" height="24" viewBox="0 0 24 24"><path d="M4,4H7L9,2H15L17,4H20A2,2 0 0,1 22,6V18A2,2 0 0,1 20,20H4A2,2 0 0,1 2,18V6A2,2 0 0,1 4,4M12,7A5,5 0 0,0 7,12A5,5 0 0,0 12,17A5,5 0 0,0 17,12A5,5 0 0,0 12,7M12,9A3,3 0 0,1 15,12A3,3 0 0,1 12,15A3,3 0 0,1 9,12A3,3 0 0,1 12,9Z" /></svg>
